svgs/sharp-light/loveseat.svg

<svg xmlns="http://www.w3.org/2000/svg" viewBox="0 0 512 512"><!--! Font Awesome Pro 6.6.0 by @fontawesome - https://fontawesome.com License - https://fontawesome.com/license (Commercial License) Copyright 2024 Fonticons, Inc. --><path d="M416 64L96 64l0 128-32 0L64 64l0-32 32 0 320 0 32 0 0 32 0 128-32 0 0-128zM32 448l64 0 0-32 0-96 0-32 0-32-64 0 0 192zm96-192l0 32 256 0 0-32 0-32 32 0 64 0 32 0 0 32 0 192 0 32-32 0-64 0-32 0 0-32-256 0 0 32-32 0-64 0L0 480l0-32L0 256l0-32 32 0 64 0 32 0 0 32zm0 160l256 0 0-96-256 0 0 96zm288 0l0 32 64 0 0-192-64 0 0 32 0 32 0 96z"/></svg>

<svg xmlns="http://www.w3.org/2000/svg" viewBox="0 0 512 512"><!--! Font Awesome Pro 6.4.0 by @fontawesome - https://fontawesome.com License - https://fontawesome.com/license (Commercial License) Copyright 2023 Fonticons, Inc. --><path d="M416 64H96V192H64V64 32H96 416h32V64 192H416V64zM32 448H96V416 320 288 256H32V448zm96-192v32H384V256 224h32 64 32v32V448v32H480 416 384V448H128v32H96 32 0V448 256 224H32 96h32v32zm0 160H384V320H128v96zm288 0v32h64V256H416v32 32 96z"/></svg>
